svgs/sharp-thin/trash-list.svg

<svg xmlns="http://www.w3.org/2000/svg" viewBox="0 0 640 512"><!--! Font Awesome Pro 6.6.0 by @fontawesome - https://fontawesome.com License - https://fontawesome.com/license (Commercial License) Copyright 2024 Fonticons, Inc. --><path d="M160 0l96 0 4.4 0 2.4 3.8L300.4 64 416 64l0 16L0 80 0 64l115.6 0L153.2 3.8 155.6 0 160 0zM281.6 64l-30-48-87.1 0-30 48 147.1 0zM448 128l192 0 0 16-192 0 0-16zm0 128l160 0 0 16-160 0 0-16zm96 128l0 16-96 0 0-16 96 0zM64 504.7L31.3 112l16.1 0 32 384 257.3 0 32-384 16.1 0L352 504.7l-.6 7.3-7.4 0L72 512l-7.4 0-.6-7.3z"/></svg>

<svg xmlns="http://www.w3.org/2000/svg" viewBox="0 0 640 512"><!--! Font Awesome Pro 6.5.2 by @fontawesome - https://fontawesome.com License - https://fontawesome.com/license (Commercial License) Copyright 2024 Fonticons, Inc. --><path d="M160 0h96 4.4l2.4 3.8L300.4 64H416V80H0V64H115.6L153.2 3.8 155.6 0H160zM281.6 64l-30-48H164.4l-30 48H281.6zM448 128H640v16H448V128zm0 128H608v16H448V256zm96 128v16H448V384h96zM64 504.7L31.3 112H47.4l32 384H336.6l32-384h16.1L352 504.7l-.6 7.3H344 72 64.6l-.6-7.3z"/></svg>
